X:300
T: Siobhan Hurl's
S: "Music of Ireland - The Big Session" (DJ Taylor)
Z: B.Black
L: 1/8
M: 12/8
R: slide
K: A
e2 a c2 B A2 c EFA|c2 B Bce f2 e c2 d|\
e2 a c2 B A2 c EFA|c2 B c2 B A6 :|
c2 B Bce f2 e c2 B|c2 B Bce f2 e c2 d|\
e2 a c2 B A2 c EFA|c2 B c2 B A6 :|
